symbols/web/fiber_smart_record/materialsymbolsoutlined/fiber_smart_record_grad200_24px.svg

<svg xmlns="http://www.w3.org/2000/svg" height="24" width="24"><path d="M8.95 19.75q-3.225 0-5.487-2.262Q1.2 15.225 1.2 12q0-3.225 2.263-5.488Q5.725 4.25 8.95 4.25t5.488 2.262Q16.7 8.775 16.7 12q0 3.225-2.262 5.488-2.263 2.262-5.488 2.262Zm0-7.75Zm7.15 7.65V17q1.8-.35 2.925-1.763Q20.15 13.825 20.15 12q0-1.825-1.125-3.238Q17.9 7.35 16.1 7V4.35q2.9.35 4.8 2.537Q22.8 9.075 22.8 12q0 2.925-1.9 5.113Q19 19.3 16.1 19.65ZM8.95 17.1q2.125 0 3.612-1.487Q14.05 14.125 14.05 12t-1.488-3.613Q11.075 6.9 8.95 6.9T5.338 8.387Q3.85 9.875 3.85 12t1.488 3.613Q6.825 17.1 8.95 17.1Z"/></svg>

<svg xmlns="http://www.w3.org/2000/svg" height="24" width="24"><path d="M8.95 19.75Q5.725 19.75 3.463 17.488Q1.2 15.225 1.2 12Q1.2 8.775 3.463 6.512Q5.725 4.25 8.95 4.25Q12.175 4.25 14.438 6.512Q16.7 8.775 16.7 12Q16.7 15.225 14.438 17.488Q12.175 19.75 8.95 19.75ZM8.95 12Q8.95 12 8.95 12Q8.95 12 8.95 12Q8.95 12 8.95 12Q8.95 12 8.95 12Q8.95 12 8.95 12Q8.95 12 8.95 12Q8.95 12 8.95 12Q8.95 12 8.95 12ZM16.1 19.65V17Q17.9 16.65 19.025 15.237Q20.15 13.825 20.15 12Q20.15 10.175 19.025 8.762Q17.9 7.35 16.1 7V4.35Q19 4.7 20.9 6.887Q22.8 9.075 22.8 12Q22.8 14.925 20.9 17.113Q19 19.3 16.1 19.65ZM8.95 17.1Q11.075 17.1 12.562 15.613Q14.05 14.125 14.05 12Q14.05 9.875 12.562 8.387Q11.075 6.9 8.95 6.9Q6.825 6.9 5.338 8.387Q3.85 9.875 3.85 12Q3.85 14.125 5.338 15.613Q6.825 17.1 8.95 17.1Z"/></svg>
